svg/2x2TopLeft.svg

<?xml version="1.0" encoding="UTF-8" standalone="no"?>
<!-- Created with Inkscape (http://www.inkscape.org/) -->

<svg
   width="32"
   height="32"
   viewBox="0 0 8.4666666 8.4666668"
   version="1.1"
   id="svg5"
   inkscape:version="1.1.2 (b8e25be8, 2022-02-05)"
   sodipodi:docname="2x2TopLeft.svg"
   xmlns:inkscape="http://www.inkscape.org/namespaces/inkscape"
   xmlns:sodipodi="http://sodipodi.sourceforge.net/DTD/sodipodi-0.dtd"
   xmlns="http://www.w3.org/2000/svg"
   xmlns:svg="http://www.w3.org/2000/svg"
   xmlns:rdf="http://www.w3.org/1999/02/22-rdf-syntax-ns#"
   xmlns:cc="http://creativecommons.org/ns#">
  <sodipodi:namedview
     id="namedview7"
     pagecolor="#ffffff"
     bordercolor="#111111"
     borderopacity="1"
     inkscape:pageshadow="0"
     inkscape:pageopacity="0"
     inkscape:pagecheckerboard="1"
     inkscape:document-units="mm"
     showgrid="true"
     width="32mm"
     units="px"
     objecttolerance="10000"
     guidetolerance="10000"
     inkscape:snap-perpendicular="true"
     inkscape:snap-tangential="true"
     inkscape:zoom="34.90625"
     inkscape:cx="16"
     inkscape:cy="16"
     inkscape:window-width="2560"
     inkscape:window-height="1301"
     inkscape:window-x="0"
     inkscape:window-y="25"
     inkscape:window-maximized="0"
     inkscape:current-layer="layer1">
    <inkscape:grid
       type="xygrid"
       id="grid9"
       units="px"
       empspacing="4" />
  </sodipodi:namedview>
  <defs
     id="defs2" />
  <g
     inkscape:label="Layer 1"
     inkscape:groupmode="layer"
     id="layer1">
    <path
       style="fill:#000000;fill-opacity:1;stroke:none;stroke-width:0.264583px;stroke-linecap:butt;stroke-linejoin:miter;stroke-opacity:1"
       d="M 6.6666665e-8,-1.3666667e-7 4.2333334,-2.3666667e-7 3.7041667,0.52916646 l -3.17499993,10e-8 -1e-7,3.17499994 L -3.3333336e-8,4.2333332 6.6666663e-8,-1.3666667e-7 v 0"
       id="path661"
       sodipodi:nodetypes="cccccccc" />
    <path
       style="fill:#000000;fill-opacity:1;stroke:none;stroke-width:0.264583px;stroke-linecap:butt;stroke-linejoin:miter;stroke-opacity:1"
       d="m 4.2333334,-1.3666667e-7 4.2333333,-1e-7 L 7.9375,0.52916646 l -3.1749999,10e-8 -10e-8,3.17499994 -0.5291667,0.5291667 1e-7,-4.23333333666667 v 0"
       id="path1187"
       sodipodi:nodetypes="cccccccc" />
    <path
       style="fill:#000000;fill-opacity:1;stroke:none;stroke-width:0.264583px;stroke-linecap:butt;stroke-linejoin:miter;stroke-opacity:1"
       d="M 6.6666665e-8,4.2333335 4.2333334,4.2333334 3.7041667,4.7625001 l -3.17499993,1e-7 -1e-7,3.1749998 L -3.3333334e-8,8.4666667 6.6666665e-8,4.2333335 v 0"
       id="path1429"
       sodipodi:nodetypes="cccccccc" />
    <path
       style="fill:#000000;fill-opacity:1;stroke:none;stroke-width:0.264583px;stroke-linecap:butt;stroke-linejoin:miter;stroke-opacity:1"
       d="m 4.2333334,4.2333335 4.2333333,-10e-8 -0.5291667,0.5291667 -3.1749999,1e-7 -10e-8,3.1749998 -0.5291667,0.5291667 1e-7,-4.2333332 v 0"
       id="path1431"
       sodipodi:nodetypes="cccccccc" />
  </g>
  <metadata
     id="metadata33">
    <rdf:RDF>
      <cc:Work
         rdf:about="">
        <cc:license
           rdf:resource="http://creativecommons.org/licenses/by-sa/4.0/" />
      </cc:Work>
      <cc:License
         rdf:about="http://creativecommons.org/licenses/by-sa/4.0/">
        <cc:permits
           rdf:resource="http://creativecommons.org/ns#Reproduction" />
        <cc:permits
           rdf:resource="http://creativecommons.org/ns#Distribution" />
        <cc:requires
           rdf:resource="http://creativecommons.org/ns#Notice" />
        <cc:requires
           rdf:resource="http://creativecommons.org/ns#Attribution" />
        <cc:permits
           rdf:resource="http://creativecommons.org/ns#DerivativeWorks" />
        <cc:requires
           rdf:resource="http://creativecommons.org/ns#ShareAlike" />
      </cc:License>
    </rdf:RDF>
  </metadata>
</svg>

<svg width="32" height="32" viewBox="0 0 8.467 8.467" xmlns="http://www.w3.org/2000/svg"><path style="fill:#000;fill-opacity:1;stroke:none;stroke-width:.264583px;stroke-linecap:butt;stroke-linejoin:miter;stroke-opacity:1" d="M0 0h4.233l-.529.53H.53v3.174L0 4.234V0M4.233 0h4.234l-.53.53H4.764v3.174l-.53.53V0"/><path style="fill:#000;fill-opacity:1;stroke:none;stroke-width:.264583px;stroke-linecap:butt;stroke-linejoin:miter;stroke-opacity:1" d="M0 4.233h4.233l-.529.53H.53v3.175L0 8.466V4.233M4.233 4.233h4.234l-.53.53H4.764v3.175l-.53.529V4.233"/></svg>
